src/assets/svg/icons/fa/nuevos/classic/thin/gopuram classic thin.svg

<svg xmlns="http://www.w3.org/2000/svg" viewBox="0 0 512 512"><!--! Font Awesome Pro 6.4.0 by @fontawesome - https://fontawesome.com License - https://fontawesome.com/license (Commercial License) Copyright 2023 Fonticons, Inc. --><path d="M104 0c4.4 0 8 3.6 8 8V32h80V8c0-4.4 3.6-8 8-8s8 3.6 8 8V32h96V8c0-4.4 3.6-8 8-8s8 3.6 8 8V32h80V8c0-4.4 3.6-8 8-8s8 3.6 8 8V32 48 80v32 .8c18.3 3.7 32 19.8 32 39.2v72 .8c18.3 3.7 32 19.8 32 39.2v88 .8c18.3 3.7 32 19.8 32 39.2v80c0 22.1-17.9 40-40 40H320 304 208 192 40c-22.1 0-40-17.9-40-40V392c0-19.4 13.7-35.5 32-39.2V352 264c0-19.4 13.7-35.5 32-39.2V224 152c0-19.4 13.7-35.5 32-39.2V112 80 48 32 8c0-4.4 3.6-8 8-8zM208 496h96V464c0-26.5-21.5-48-48-48s-48 21.5-48 48v32zm112 0h80V368H384 304 288 224 208 128 112V496h80V464c0-35.3 28.7-64 64-64s64 28.7 64 64v32zM112 80v32H400V80 48H312 200 112V80zm-8 48c-13.3 0-24 10.7-24 24v72h32 16 32V128H112h-8zm72 0v96h48V192c0-17.7 14.3-32 32-32s32 14.3 32 32v32h48V128H176zm96 64c0-8.8-7.2-16-16-16s-16 7.2-16 16v32h32V192zM128 352h80V320c0-26.5 21.5-48 48-48s48 21.5 48 48v32h80V240H288 272 240 224 128V352zM384 224h16 32V152c0-13.3-10.7-24-24-24h-8H352v96h32zM288 352V320c0-17.7-14.3-32-32-32s-32 14.3-32 32v32h64zM400 240V352h64V264c0-13.3-10.7-24-24-24h-8H400zM80 240H72c-13.3 0-24 10.7-24 24v88h64V240H80zM40 368c-13.3 0-24 10.7-24 24v80c0 13.3 10.7 24 24 24H96V368H48 40zM472 496c13.3 0 24-10.7 24-24V392c0-13.3-10.7-24-24-24h-8H416V496h56z"/></svg>

<svg xmlns="http://www.w3.org/2000/svg" viewBox="0 0 512 512"><path d="M104 0C108.4 0 112 3.582 112 8V32H192V8C192 3.582 195.6 0 200 0C204.4 0 208 3.582 208 8V32H304V8C304 3.582 307.6 0 312 0C316.4 0 320 3.582 320 8V32H400V8C400 3.582 403.6 0 408 0C412.4 0 416 3.582 416 8V112.8C434.3 116.5 448 132.6 448 152V224.8C466.3 228.5 480 244.6 480 264V352.8C498.3 356.5 512 372.6 512 392V472C512 494.1 494.1 512 472 512H40C17.91 512 0 494.1 0 472V392C0 372.6 13.74 356.5 32 352.8V264C32 244.6 45.74 228.5 64 224.8V152C64 132.6 77.74 116.5 96 112.8V8C96 3.582 99.58 0 104 0zM208 496H304V464C304 437.5 282.5 416 256 416C229.5 416 208 437.5 208 464V496zM320 496H400V368H112V496H192V464C192 428.7 220.7 400 256 400C291.3 400 320 428.7 320 464V496zM112 112H400V48H112V112zM104 128C90.75 128 80 138.7 80 152V224H160V128H104zM176 128V224H224V192C224 174.3 238.3 160 256 160C273.7 160 288 174.3 288 192V224H336V128H176zM256 176C247.2 176 240 183.2 240 192V224H272V192C272 183.2 264.8 176 256 176zM208 352V320C208 293.5 229.5 272 256 272C282.5 272 304 293.5 304 320V352H384V240H128V352H208zM432 224V152C432 138.7 421.3 128 408 128H352V224H432zM288 352V320C288 302.3 273.7 288 256 288C238.3 288 224 302.3 224 320V352H288zM400 240V352H464V264C464 250.7 453.3 240 440 240H400zM72 240C58.75 240 48 250.7 48 264V352H112V240H72zM40 368C26.75 368 16 378.7 16 392V472C16 485.3 26.75 496 40 496H96V368H40zM496 472V392C496 378.7 485.3 368 472 368H416V496H472C485.3 496 496 485.3 496 472z"/></svg>
